public/images/ai21.svg

<svg width="100" height="100" viewBox="0 0 100 100" fill="none" xmlns="http://www.w3.org/2000/svg">
<path d="M36.6729 53.9671V47.8401L34.0505 54.6448C33.9534 54.8707 33.7453 55.0259 33.4955 55.0259C33.2458 55.0259 33.0377 54.8707 32.9405 54.6448L30.3181 47.8401V53.9671C30.3181 54.5318 29.8741 55.0259 29.3052 55.0259C28.7225 55.0259 28.2507 54.5318 28.2507 53.9671V46.6824C28.2507 45.7365 29.0139 44.9742 29.9296 44.9742C30.6511 44.9742 31.2616 45.4259 31.5114 46.0754L33.4817 51.2142L35.4797 46.0754C35.7155 45.4259 36.3261 44.9742 37.0337 44.9742C37.9772 44.9742 38.7265 45.7507 38.7265 46.6824V53.953C38.7265 54.5177 38.2686 55.0118 37.6719 55.0118C37.1308 55.0118 36.6729 54.5318 36.6729 53.9671Z" fill="#0BBCD4"/>
<path d="M51.0198 53.953C51.0198 54.5459 50.5481 55.0259 49.9653 55.0259C49.5213 55.0259 49.1328 54.7295 48.9941 54.32L48.6056 53.1765H44.2488L43.8603 54.32C43.7354 54.7295 43.3191 55.0259 42.8751 55.0259C42.2924 55.0259 41.8206 54.56 41.8206 53.953C41.8206 53.8259 41.8484 53.6848 41.9039 53.5859L44.7344 46.16C44.998 45.4683 45.6501 44.9883 46.4272 44.9883C47.2042 44.9883 47.8702 45.4824 48.1199 46.16L50.9366 53.5859C50.9643 53.6989 51.0198 53.8118 51.0198 53.953ZM47.9534 51.3412L46.4272 46.8942L44.887 51.3412H47.9534Z" fill="#0BBCD4"/>
<path d="M60.7324 53.9671V50.7906H56.1675V53.9812C56.1675 54.5459 55.7235 55.04 55.1546 55.04C54.5718 55.04 54.1001 54.5459 54.1001 53.9812V46.0188C54.1001 45.44 54.558 44.96 55.1407 44.96C55.7235 44.96 56.1814 45.4259 56.1814 46.0188V48.9412H60.7463V46.0188C60.7463 45.44 61.2042 44.96 61.8008 44.96C62.3697 44.96 62.8414 45.4259 62.8414 46.0188V53.953C62.8414 54.5177 62.3835 55.0118 61.7869 55.0118C61.1903 55.0118 60.7324 54.5318 60.7324 53.9671Z" fill="#0BBCD4"/>
<path d="M71.0833 44.9036C74.0109 44.9036 76.1477 47.0212 76.1477 50C76.1477 52.9647 74.0109 55.0965 71.0833 55.0965C68.1695 55.0965 66.0327 52.9789 66.0327 50C66.0466 47.0353 68.1695 44.9036 71.0833 44.9036ZM71.0833 46.7671C69.2934 46.7671 68.1556 48.1647 68.1556 50C68.1556 51.8212 69.2934 53.233 71.0833 53.233C72.8731 53.233 74.0387 51.8353 74.0387 50C74.0248 48.1647 72.8731 46.7671 71.0833 46.7671Z" fill="#0BBCD4"/>
<path d="M79.4083 46.033C79.4083 45.44 79.8662 44.96 80.4628 44.96C81.0456 44.96 81.5173 45.4259 81.5173 46.033V50.9177C81.5173 52.2871 82.2527 53.233 83.7651 53.233C85.2498 53.233 85.9851 52.2871 85.9851 50.9177V46.033C85.9851 45.44 86.443 44.96 87.0396 44.96C87.6224 44.96 88.0942 45.4259 88.0942 46.033V50.9741C88.0942 53.4306 86.7205 55.0965 83.779 55.0965C80.8236 55.0965 79.4361 53.4165 79.4361 50.9883V46.033H79.4083Z" fill="#0BBCD4"/>
<path d="M94.0049 53.9671V46.9082H91.993C91.4935 46.9082 91.0773 46.4988 91.0773 45.9906C91.0773 45.4682 91.4935 45.0588 91.993 45.0588H98.0981C98.5976 45.0588 99.0138 45.4682 99.0138 45.9906C99.0138 46.4988 98.5976 46.9082 98.0981 46.9082H96.0862V53.9671C96.0862 54.5318 95.6283 55.0259 95.0456 55.0259C94.4767 55.0118 94.0049 54.5318 94.0049 53.9671Z" fill="#0BBCD4"/>
<path d="M10.3102 57.7788V55.2941C9.33895 55.1106 8.60357 54.2353 8.60357 53.2047C8.60357 52.7812 8.72844 52.3718 8.95045 52.0329L6.89693 50.4941L4.85728 52.0329C5.07929 52.3718 5.20416 52.7671 5.20416 53.2047C5.20416 53.6424 5.07929 54.0518 4.84341 54.3765L9.49158 58.1035C9.74133 57.9482 10.0188 57.8212 10.3102 57.7788ZM11.0872 57.7788C11.3786 57.8353 11.6561 57.9482 11.892 58.1318L16.5401 54.4047C16.3181 54.0659 16.1933 53.6565 16.1933 53.2329C16.1933 52.8094 16.3181 52.3859 16.5401 52.0612L14.5144 50.5082L12.447 52.0329C12.669 52.3718 12.7939 52.7671 12.7939 53.2047C12.7939 54.2494 12.0585 55.1106 11.0872 55.2941V57.7788ZM12.4331 58.6965C12.6551 59.0353 12.78 59.4447 12.78 59.8682C12.78 61.04 11.8365 62 10.6848 62C9.5332 62 8.58969 61.04 8.58969 59.8682C8.58969 59.4306 8.71457 59.0353 8.95045 58.6965L4.30228 54.9694C3.9554 55.2094 3.55302 55.3506 3.10902 55.3506C1.95738 55.3506 1.01388 54.3906 1.01388 53.2188C1.01388 52.1741 1.74926 51.3129 2.72052 51.1294V48.8988C1.73538 48.7012 1 47.84 1 46.7953C1 45.6235 1.94351 44.6635 3.09514 44.6635C3.53915 44.6635 3.94153 44.8047 4.2884 45.0447L8.93657 41.3176C8.72845 40.9647 8.58969 40.5694 8.58969 40.1318C8.60357 38.96 9.54708 38 10.6987 38C11.8503 38 12.7939 38.96 12.7939 40.1318C12.7939 40.5694 12.669 40.9647 12.447 41.3035L17.0951 45.0447C17.442 44.8047 17.8444 44.6635 18.2884 44.6635C19.44 44.6635 20.3835 45.6235 20.3835 46.7953C20.3835 47.84 19.6482 48.7012 18.6769 48.8847V51.1012C19.6482 51.2847 20.3835 52.16 20.3835 53.1906C20.3835 54.3624 19.44 55.3224 18.2884 55.3224C17.8444 55.3224 17.442 55.1812 17.0951 54.9412L12.4331 58.6965ZM4.30228 51.4541L6.23092 50L4.30228 48.5459C4.0664 48.7153 3.7889 48.8424 3.48365 48.8988V51.1153C3.7889 51.1576 4.0664 51.2847 4.30228 51.4541ZM4.85728 47.9671L6.89693 49.5059L8.93657 47.9671C8.72845 47.6282 8.58969 47.2188 8.58969 46.7953C8.58969 45.7506 9.32508 44.8894 10.2963 44.7059V42.2212C10.005 42.1647 9.72745 42.0518 9.49158 41.8682L4.85728 45.6094C5.06541 45.9624 5.20416 46.3576 5.20416 46.7953C5.19029 47.2329 5.06541 47.6424 4.85728 47.9671ZM17.0951 51.4541C17.331 51.2847 17.6085 51.1576 17.9138 51.1012V48.8988C17.6085 48.8424 17.331 48.7294 17.0951 48.5459L15.1665 50L17.0951 51.4541ZM16.554 45.6235L11.9058 41.8965C11.67 42.0659 11.3925 42.1929 11.1011 42.2494V44.7341C12.0724 44.9176 12.8077 45.7929 12.8077 46.8235C12.8077 47.2471 12.6829 47.6706 12.4609 47.9953L14.4866 49.52L16.5401 47.9671C16.3181 47.6282 16.1933 47.2329 16.1933 46.7953C16.2071 46.3576 16.332 45.9624 16.554 45.6235ZM9.49158 51.4541C9.83846 51.2141 10.2547 51.0729 10.6987 51.0729C11.1427 51.0729 11.559 51.2141 11.9058 51.4541L13.8345 50L11.9058 48.5459C11.559 48.7859 11.1427 48.9271 10.6987 48.9271C10.2547 48.9271 9.83846 48.7859 9.49158 48.5459L7.56293 50L9.49158 51.4541ZM10.6987 48.1365C11.4202 48.1365 12.003 47.5294 12.003 46.8094C12.003 46.0894 11.4063 45.4824 10.6987 45.4824C9.97721 45.4824 9.39445 46.0894 9.39445 46.8094C9.39445 47.5294 9.97721 48.1365 10.6987 48.1365ZM10.6987 54.5318C11.4202 54.5318 12.003 53.9247 12.003 53.2047C12.003 52.4706 11.4063 51.8776 10.6987 51.8776C9.97721 51.8776 9.39445 52.4847 9.39445 53.2047C9.38058 53.9388 9.97721 54.5318 10.6987 54.5318ZM18.3023 48.1365C19.0238 48.1365 19.6065 47.5294 19.6065 46.8094C19.6065 46.0894 19.0099 45.4824 18.3023 45.4824C17.5808 45.4824 16.998 46.0894 16.998 46.8094C16.998 47.5294 17.5808 48.1365 18.3023 48.1365ZM18.3023 54.5318C19.0238 54.5318 19.6065 53.9247 19.6065 53.2047C19.6065 52.4706 19.0099 51.8776 18.3023 51.8776C17.5808 51.8776 16.998 52.4847 16.998 53.2047C16.9841 53.9388 17.5808 54.5318 18.3023 54.5318ZM3.09514 48.1365C3.81665 48.1365 4.39941 47.5294 4.39941 46.8094C4.39941 46.0894 3.80278 45.4824 3.09514 45.4824C2.38751 45.4824 1.79088 46.0894 1.79088 46.8094C1.79088 47.5294 2.37364 48.1365 3.09514 48.1365ZM3.09514 54.5318C3.81665 54.5318 4.39941 53.9247 4.39941 53.2047C4.39941 52.4706 3.80278 51.8776 3.09514 51.8776C2.38751 51.8776 1.79088 52.4847 1.79088 53.2047C1.79088 53.9388 2.37364 54.5318 3.09514 54.5318ZM10.6987 61.1953C11.4202 61.1953 12.003 60.5882 12.003 59.8682C12.003 59.1482 11.4063 58.5412 10.6987 58.5412C9.97721 58.5412 9.39445 59.1482 9.39445 59.8682C9.39445 60.5882 9.97721 61.1953 10.6987 61.1953ZM10.6987 41.4729C11.4202 41.4729 12.003 40.8659 12.003 40.1459C12.003 39.4259 11.4063 38.8188 10.6987 38.8188C9.97721 38.8188 9.39445 39.4259 9.39445 40.1459C9.39445 40.8659 9.97721 41.4729 10.6987 41.4729Z" fill="#0BBCD4"/>
</svg>

<svg xmlns="http://www.w3.org/2000/svg" width="100" height="100" fill="none"><path fill="#0BBCD4" d="M36.673 53.967V47.84l-2.623 6.805a.605.605 0 0 1-.554.38.605.605 0 0 1-.556-.38l-2.622-6.805v6.127c0 .565-.444 1.059-1.013 1.059a1.07 1.07 0 0 1-1.054-1.059v-7.285c0-.946.763-1.708 1.679-1.708.721 0 1.332.452 1.581 1.101l1.97 5.14 1.999-5.14a1.66 1.66 0 0 1 1.554-1.1c.943 0 1.693.776 1.693 1.707v7.271a1.06 1.06 0 0 1-1.055 1.059c-.541 0-1-.48-1-1.045M51.02 53.953c0 .593-.472 1.073-1.055 1.073-.444 0-.832-.297-.97-.706l-.39-1.144H44.25l-.389 1.144c-.125.41-.54.706-.985.706a1.055 1.055 0 0 1-1.054-1.073c0-.127.027-.268.083-.367l2.83-7.426a1.808 1.808 0 0 1 3.386 0l2.817 7.426c.027.113.083.226.083.367m-3.067-2.612-1.526-4.447-1.54 4.447zM60.732 53.967v-3.176h-4.565v3.19c0 .565-.444 1.059-1.012 1.059a1.07 1.07 0 0 1-1.055-1.059V46.02c0-.579.458-1.059 1.04-1.059.584 0 1.041.466 1.041 1.059v2.922h4.565V46.02c0-.579.458-1.059 1.055-1.059.569 0 1.04.466 1.04 1.059v7.934a1.06 1.06 0 0 1-1.054 1.059c-.597 0-1.055-.48-1.055-1.045M71.083 44.904c2.928 0 5.065 2.117 5.065 5.096 0 2.965-2.137 5.096-5.065 5.096-2.913 0-5.05-2.117-5.05-5.096.014-2.965 2.136-5.096 5.05-5.096m0 1.863c-1.79 0-2.927 1.398-2.927 3.233 0 1.821 1.137 3.233 2.927 3.233S74.04 51.835 74.04 50c-.014-1.835-1.166-3.233-2.956-3.233M79.408 46.033a1.055 1.055 0 1 1 2.11 0v4.885c0 1.37.735 2.315 2.247 2.315 1.485 0 2.22-.946 2.22-2.315v-4.885a1.055 1.055 0 1 1 2.11 0v4.941c0 2.457-1.374 4.123-4.316 4.123-2.955 0-4.343-1.68-4.343-4.109v-4.955zM94.005 53.967v-7.059h-2.012a.92.92 0 0 1-.916-.917c0-.523.416-.932.916-.932h6.105c.5 0 .916.41.916.932a.92.92 0 0 1-.916.917h-2.012v7.06c0 .564-.458 1.058-1.04 1.058a1.076 1.076 0 0 1-1.041-1.059M10.31 57.779v-2.485c-.971-.183-1.706-1.059-1.706-2.09 0-.423.124-.832.346-1.171l-2.053-1.539-2.04 1.539c.222.339.347.734.347 1.172s-.125.847-.36 1.172l4.648 3.726c.25-.155.527-.282.818-.324m.777 0c.292.056.57.17.805.353l4.648-3.727a2.15 2.15 0 0 1-.347-1.172c0-.424.125-.847.347-1.172l-2.026-1.553-2.067 1.525c.222.339.347.734.347 1.172a2.11 2.11 0 0 1-1.707 2.09zm1.346.917c.222.34.347.749.347 1.172 0 1.172-.944 2.132-2.095 2.132s-2.095-.96-2.095-2.132c0-.437.125-.833.36-1.172L4.302 54.97c-.347.24-.749.382-1.193.382-1.152 0-2.095-.96-2.095-2.132 0-1.045.735-1.906 1.707-2.09V48.9A2.14 2.14 0 0 1 1 46.795c0-1.172.944-2.132 2.095-2.132.444 0 .847.142 1.193.382l4.649-3.727a2.3 2.3 0 0 1-.347-1.186C8.604 38.96 9.547 38 10.699 38c1.151 0 2.095.96 2.095 2.132 0 .437-.125.833-.347 1.172l4.648 3.74c.347-.24.75-.38 1.193-.38 1.152 0 2.096.96 2.096 2.131a2.11 2.11 0 0 1-1.707 2.09V51.1c.971.184 1.707 1.059 1.707 2.09 0 1.171-.944 2.131-2.096 2.131-.444 0-.846-.14-1.193-.38zm-8.13-7.242L6.23 50l-1.929-1.454c-.236.17-.513.296-.818.353v2.216c.305.043.582.17.818.34m.554-3.487 2.04 1.539 2.04-1.539a2.27 2.27 0 0 1-.347-1.172c0-1.044.735-1.906 1.706-2.09v-2.484a1.9 1.9 0 0 1-.804-.353L4.857 45.61c.208.353.347.749.347 1.186a2.3 2.3 0 0 1-.347 1.172m12.238 3.487c.236-.17.514-.296.819-.353V48.9a1.86 1.86 0 0 1-.819-.353L15.167 50zm-.541-5.83-4.648-3.727a2.1 2.1 0 0 1-.805.352v2.485c.971.184 1.707 1.059 1.707 2.09 0 .423-.125.847-.347 1.171l2.026 1.525 2.053-1.553a2.1 2.1 0 0 1-.347-1.172 2.24 2.24 0 0 1 .361-1.172m-7.062 5.83c.346-.24.763-.381 1.207-.381s.86.141 1.207.381L13.834 50l-1.928-1.454c-.347.24-.763.381-1.207.381s-.86-.141-1.207-.381L7.562 50zm1.207-3.318c.721 0 1.304-.607 1.304-1.327s-.597-1.327-1.304-1.327c-.722 0-1.305.607-1.305 1.327s.583 1.328 1.305 1.328m0 6.396c.721 0 1.304-.607 1.304-1.327 0-.734-.597-1.327-1.304-1.327-.722 0-1.305.607-1.305 1.327a1.306 1.306 0 0 0 1.305 1.327m7.603-6.395c.722 0 1.305-.608 1.305-1.328s-.597-1.327-1.305-1.327c-.721 0-1.304.607-1.304 1.327s.583 1.328 1.304 1.328m0 6.395c.722 0 1.305-.607 1.305-1.327 0-.734-.597-1.327-1.305-1.327-.721 0-1.304.607-1.304 1.327a1.306 1.306 0 0 0 1.304 1.327M3.095 48.137c.722 0 1.304-.608 1.304-1.328s-.596-1.327-1.304-1.327c-.707 0-1.304.607-1.304 1.327s.583 1.328 1.304 1.328m0 6.395c.722 0 1.304-.607 1.304-1.327 0-.734-.596-1.327-1.304-1.327-.707 0-1.304.607-1.304 1.327 0 .734.583 1.327 1.304 1.327m7.604 6.663c.721 0 1.304-.607 1.304-1.327s-.597-1.327-1.304-1.327c-.722 0-1.305.607-1.305 1.327s.583 1.327 1.305 1.327m0-19.722c.721 0 1.304-.607 1.304-1.327s-.597-1.327-1.304-1.327c-.722 0-1.305.607-1.305 1.327s.583 1.327 1.305 1.327"/></svg>
